X:1
T:Splinters
T:Two Step
T:Maude Gilmore
T:Copyright 1909 by Chas. L. Johnson &amp; Co.
T:Copyright 1909 by Chas. L. Johnson &amp; Co.
T:Copyright 1909 by Chas. L. Johnson &amp; Co.
T:Copyright 1909 by Chas. L. Johnson &amp; Co.
Z:Copyright 1909 by Chas. L. Johnson & Co.
%%score { 1 | 2 }
L:1/8
Q:1/4=80
M:2/4
K:C
V:1 treble nm="Piano" snm="Pno."
V:2 bass 
V:1
!ff! c'c'- c'/a/c'/a/ | g/a/g/e/ c/d/e/c/ | g!>![GB]!>![Gc]!>![G^c] | !>![Gd] z !>![ca]!>![c_a] |: %4
!mf! [Bg]^f/[Bg]/- [Bg]/^c/d/e/ | f/^G/A/B/ ed | [Ec]/B/c/[EA]/- [EA]/^G/[EA] | [EG]2 [EA][E^A] | %8
 [FB]/^A/B/[F=A]/- [FA]/^G/[FA] | [FG]2 [FA][FB] | [Ec]/B/c/[EA]/- [EA]/^G/[EA] | [EG]2 [ca][c_a] | %12
 [Bg]^f/g/- g/^c/d/e/ | f/^G/A/B/ [=Ge][Fd] | [Ec]/B/c/[EA]/- [EA]/^G/[EA] | [EG]2- [EG]/^F/G/^G/ | %16
 A/^G/A/c/- c/B/c/d/ | [Ge]/c/d/[Ge]/- [Ge]/c/[Fd] |1 [Ec]4- | [Ec] z !>![ca]!>![c_a] :|2 [Ec]4- | %21
 [Ec] z [cec'] z |:!ff! [EAce]2 [Acea]2- | [Acea]A/B/ c/A/B/c/ | B/^A/B/E/- E/^D/E/^G/ | %25
 B/^A/B/E/- E/^D/E/^G/ | [E^GB]2 [Gde]2- | [Gde][^Gd][Gc][GB] | c/B/c/A/- A/^G/A/B/ | %29
 c/B/c/A/- A/^G/A/B/ | [FA]2 [Af]2- | [Af]f/e/ [Af][cfa] | [ceg]/^f/g/[ce]/- [ce]/^d/[ce] | %33
 g/^f/g/[ce]/- [ce]/^d/[ce] | [Bg]2 [Bd]2- | [Bd][Af] [Ge]<[Fd] |1 [Ec]4- | [Ec] z !>![E^Ge]2 :|2 %38
 [Ec]4- | [Ec] z !>![ca]!>![c_a] ||!mf! [Bg]^f/[Bg]/- [Bg]/^c/d/e/ | f/^G/A/B/ ed | %42
 [Ec]/B/c/[EA]/- [EA]/^G/[EA] | [EG]2 [EA][E^A] | [FB]/^A/B/[F=A]/- [FA]/^G/[FA] | [FG]2 [FA][FB] | %46
 [Ec]/B/c/[EA]/- [EA]/^G/[EA] | [EG]2 !>![ca]!>![c_a] | [Bg]^f/g/- g/^c/d/e/ | %49
 f/^G/A/B/ [=Ge][Fd] | [Ec]/B/c/[EA]/- [EA]/^G/[EA] | [EG]2- [EG]/^F/G/^G/ | A/^G/A/c/- c/B/c/d/ | %53
 [Ge]/c/d/[Ge]/- [Ge]/c/[Fd] | [Ec]4- | [Ec] z [cec'] z |: %56
[K:F]"^Trio"!mf! c'/=b/c'/^c'/ d'/=c'/_b/a/ | g/^f/g/^g/ a/=g/e/c/ | f/e/f/d/ c/=B/c/^c/ | %59
 d/=c/A/F/ DC | E2 [EBc]2- | [EBc]/=B/c/d/ c/_B/A/G/ | F[Fcf] [F=Be][FBd] | [Fc]4 | %64
 c'/=b/c'/^c'/ d'/=c'/_b/a/ | g/^f/g/^g/ a/=g/e/c/ | f/e/f/d/ c/=B/c/^c/ | d/=c/A/F/ DC | %68
 D/^F/A/c/ [Fc_e][Fcd] | D/G/B/d/ [F=B=e][FBd] | c/=B/c/d/ c/_B/A/G/ |1 FF/G/ A/c/f/a/ :|2 %72
 F z !>![fd']!>![f_d'] |:!ff! [ec']=b/[ec'-]/ c'/^f/g/a/ | b/^c/d/e/ [ea][eg] | %75
 [Af]/e/f/[Ad]/- [Ad]/^c/[Ad] | [Ac]2 [Ad][A^d] | [Be]/^d/e/[B=d]/- [Bd]/^c/[Bd] | [Bc]2 [Bd][Be] | %79
 [Af]/e/f/[Ad]/- [Ad]/^c/[Ad] | [Ac]2 !>![fd']!>![f_d'] | [ec']=b/[ec']/- [ec']/^f/g/a/ | %82
 b/^c/d/e/ [ea][eg] | [Af]/e/f/[Ad]/- [Ad]/^c/[Ad] | [Ac]2- [Ac]/=B/c/^c/ | d/^c/d/f/- f/e/f/g/ | %86
 [ca]/f/g/[ca]/- [ca]/f/[Bg] |1 [Af]4- | [Af] z [fd'][f_d'] :|2 [Af]4- | [Af] z [faf'] z |] %91
V:2
[I:staff -1] [^D^Fc] [DFc]2 [DFc] | [EGc][I:staff +1] z[I:staff -1] C/D/E/C/ | %2
[I:staff +1] z !>![G,,G,]!>![A,,A,]!>![^A,,^A,] | !>![B,,B,] z !>![E,E]!>![_E,_E] |: %4
 [D,D][G,B,F] G,,[G,B,F] | D,[G,B,F] G,,[G,B,F] | C,[E,G,C] G,,[E,G,C] | C,[E,G,C] [C,C][^C,^C] | %8
 D,[F,G,B,] G,,[F,G,B,] | D,[F,G,B,] G,,[F,G,B,] | C,[E,G,C] G,,[E,G,C] | C,[E,G,C] [E,E][_E,_E] | %12
 [D,,D,][G,B,F] G,,[G,B,F] | D,[F,G,B,] G,,[F,G,B,] | C,[E,G,C] G,,[E,G,C] | C,[E,G,C][E,G,C] z | %16
 F,[A,CF] !>![A,,A,]!>![_A,,_A,] | [G,,G,][E,G,C] G,,[F,G,B,] |1 C,G,/^F,/ G,/A,/G,/E,/ | %19
 C, z !>![E,E]!>![_E,_E] :|2 C,G,/^F,/ G,/A,/G,/E,/ | C, z [C,,C,] z |: A,,[E,A,C] E,,[E,A,C] | %23
 A,,[E,A,C] E,,[E,A,C] | ^G,,[E,^G,D] E,,[E,G,D] | ^G,,[E,^G,D] E,,[E,G,D] | %26
 ^G,,[E,^G,D] E,,[E,G,D] | B,,[E,^G,D] E,,[E,G,D] | A,,[E,A,C] E,,[E,A,C] | A,,[E,A,C] E,,[E,A,C] | %30
 F,[A,CF] C,[A,CF] | F,[A,CF] C,[A,CF] | C,[G,CE] G,,[G,CE] | C,[G,CE] G,,[G,CE] | %34
 D,[G,B,F] G,,[G,B,F] | D,[G,B,F] G,,[F,G,B,] |1 [C,C][A,,A,] [G,,G,][E,,E,] | %37
 [C,,C,] z !>![E,,E,]2 :|2 [C,C][A,,A,] [G,,G,][E,,E,] | [C,,C,] z !>![E,E]!>![_E,_E] || %40
 [D,D][G,B,F] G,,[G,B,F] | D,[G,B,F] G,,[G,B,F] | C,[E,G,C] G,,[E,G,C] | C,[E,G,C] [C,C][^C,^C] | %44
 D,[F,G,B,] G,,[F,G,B,] | D,[F,G,B,] G,,[F,G,B,] | C,[E,G,C] G,,[E,G,C] | %47
 C,[E,G,C] !>![E,E]!>![_E,_E] | [D,,D,][G,B,F] G,,[G,B,F] | D,[F,G,B,] G,,[F,G,B,] | %50
 C,[E,G,C] G,,[E,G,C] | C,[E,G,C][E,G,C] z | F,[A,CF] !>![A,,A,]!>![_A,,_A,] | %53
 [G,,G,][E,G,C] G,,[F,G,B,] | C,G,/^F,/ G,/A,/G,/E,/ | C, z [C,,C,] z |:[K:F] G,[B,CE] C,[B,CE] | %57
 E,[B,CE] C,[B,CE] | F,[A,CF] C,[A,CF] | F,[A,C] [=B,,^G,][C,A,] | G,,[C,E,B,] C,,[C,E,B,] | %61
 G,,[C,E,B,] C,,[C,E,B,] | [F,,F,][A,,A,] [^G,,^G,][G,,G,] | [A,,A,][=F,,=F,][D,,D,][C,,C,] | %64
 G,[B,CE] C,[B,CE] | E,[B,CE] C,[B,CE] | F,[A,CF] C,[A,CF] | F,[A,C] [=B,,^G,][C,A,] | %68
 A,,[D,^F,C] D,,[D,F,C] | G,,[D,G,B,] [^G,,^G,][G,,G,] | [A,,A,][F,A,C] C,[B,CE] |1 %71
 [F,A,C] z z2 :|2 [F,A,C] z !>![A,,A,]!>![_A,,_A,] |: [G,,G,][B,CE] C,[B,CE] | G,[B,CE] C,[B,CE] | %75
 F,[A,CF] C,[A,CF] | F,[A,CF] [G,,G,][^G,,^G,] | [G,,G,][B,CE] C,[B,CE] | G,[B,CE] C,[B,CE] | %79
 F,[A,CF] C,[A,CF] | F,[A,CF] !>![A,,A,]!>![_A,,_A,] | [G,,G,][B,CE] C,[B,CE] | G,[B,CE] C,[B,CE] | %83
 F,[A,CF] C,[A,CF] | F,[A,CF][A,CF] z | B,,[F,B,D] !>![D,D]!>![_D,_D] | [C,C][A,CF] C,[B,CE] |1 %87
 F,C/=B,/ C/D/C/A,/ | F, z [A,,A,][A,,_A,] :|2 F,C/=B,/ C/D/C/A,/ | F, z [F,,F,] z |] %91

